!!!OTL: ICH STAND AUF HOHEN BERGEN
!!!ARE: Europa, Mitteleuropa, Deutschland, Kreis Wetzlar; Neuwied
!!!SCT: E0089E
!!!YEM: Copyright 1995, estate of Helmut Schaffrath.
**kern
*ICvox
*Ivox
*M3/4
*k[b-]
*F:
{4c
=1
4f
4cc
8a
8f
=2
4g
4b-}
{8cc
8b-
=3
4a
4a
8cc
8a
=4
4g
4r}
{8g
8a
=5
8b-
8dd
4dd
8cc
8b-
=6
8a
8cc
4cc}
{4a
=7
4g
4cc
8b-
8cc
=8
4a
4r}
==
!!!AGN: erzaehlendes Volks - Lied, Sage, Liebe, Leid, Ballade ?
!!!ONB: ESAC (Essen Associative Code) Database: ERK1
!!!AMT: simple triple
!!!AIN: vox
!!!EED: Helmut Schaffrath
!!!EEV: 1.0
*-
